assets/Woman cartwheeling/Dark/Flat/woman_cartwheeling_flat_dark.svg

<svg width="32" height="32" viewBox="0 0 32 32" fill="none" xmlns="http://www.w3.org/2000/svg">
<path d="M13.5 28.99L14 28.6V22L14.91 18L16 18.68V29C16 29.49 15.57 30 15.08 30H14.54H13.95H13.49C13.22 30 13 29.75 13 29.48C13.01 29.21 13.23 28.99 13.5 28.99ZM26.8073 25.2036C26.8605 25.2614 26.9652 25.3753 27.2997 25.7371C27.317 25.7496 27.3338 25.7638 27.35 25.78L27.96 26.43C28.07 26.56 28.06 26.75 27.94 26.86C27.81 26.97 27.62 26.96 27.51 26.84L27.49 26.82C27.4888 26.812 27.4875 26.8039 27.4861 26.7959L27.4842 26.794C27.4932 26.888 27.4585 26.9836 27.38 27.0501C27.2503 27.1598 27.0611 27.1402 26.9609 27.0211C26.9572 27.0175 26.9536 27.0138 26.9501 27.01L26.9435 27.0022L26.84 26.8901L26.8379 26.8791L26.8301 26.87C26.8401 26.97 26.8001 27.07 26.7201 27.14C26.5901 27.24 26.4101 27.22 26.3001 27.1L26.0301 26.8C25.9723 26.7421 25.8959 26.7029 25.8098 26.7091L25.8201 26.8001C25.8501 27.0001 25.7001 27.1901 25.5001 27.2101C25.2901 27.2301 25.1101 27.0801 25.0901 26.8801L25.0036 26.1978C24.9362 26.1231 24.8901 26.07 24.8901 26.07L18.8701 19.75L19.8101 18.72L21.3601 19.45L26.6126 24.9941L26.6129 24.9944C26.7131 25.1018 26.7415 25.1321 26.7697 25.1627L26.8073 25.2035L26.8073 25.2036Z" fill="#573739"/>
<path d="M15 14H21V20H17.0172L15.95 21.9999H13.95C13.95 20.4264 14.6781 18.5069 15 17.7353V14Z" fill="#8B62BF"/>
<path d="M14.9518 14.05L4.2718 14.02C4.0518 14.02 3.9218 13.76 4.0518 13.58L4.4418 13.04C4.8718 12.45 5.3818 12.44 6.1118 12.36L16.0018 11C17.9118 10.65 18.9018 10.67 19.5618 10.03L26.7718 3.41002C27.3718 2.85002 28.34 2 28.8 2H29.5C29.71 2 29.8218 2.24002 29.6918 2.41002L21.0518 14.05H14.9518Z" fill="#573739"/>
<path d="M14.9517 14.0499H13.0017V11.4099L17.0317 10.7399C18.0117 10.5199 19.1817 10.2799 19.6517 9.84988L21.3517 8.37988L23.6717 10.5199L21.0517 14.0499H14.9517Z" fill="#9B9B9B"/>
<path d="M30.8601 2.89018C29.7301 3.52018 28.0901 4.44018 28.0901 4.44018L26.4001 3.72018L26.3601 2.55018C26.3501 2.28018 26.73 2.00006 27 2.00006C27 2.00006 30.17 1.94006 30.83 1.98006C31.05 1.99006 31.0901 2.76018 30.8601 2.89018ZM2.46988 14.69C3.72988 14.42 5.56988 14.03 5.56988 14.03L6.35988 12.37L5.61988 11.46C5.43988 11.25 5.12988 11.22 4.92988 11.4C4.92988 11.4 2.50988 13.45 2.03988 13.91C1.88988 14.07 2.20988 14.74 2.46988 14.69Z" fill="#533566"/>
<path d="M15.1275 22.0361C15.049 22.2131 15 22.4 15 22.6066C15 22.8721 15.0784 23.1279 15.2157 23.3344C15.3529 23.541 15.4314 23.7967 15.4314 24.0426C15.4314 24.7705 16.0196 25.3607 16.7451 25.3607C16.8137 25.3607 16.8824 25.3902 16.9314 25.4492C17.1667 25.7836 17.5588 26 18 26C18.4412 26 18.8333 25.7836 19.0686 25.4492C19.1078 25.3902 19.1765 25.3607 19.2549 25.3607C19.9804 25.3607 20.5686 24.7705 20.5686 24.0426C20.5686 23.7869 20.6373 23.541 20.7843 23.3344C20.9216 23.1279 21 22.8721 21 22.6066C21 22.4 20.951 22.2033 20.8725 22.0361C20.8431 21.977 20.8431 21.9082 20.8725 21.8492C20.951 21.682 21 21.4852 21 21.2885C21 20.5705 20.4216 20 19.7157 20H16.2843C15.5686 20 15 20.5803 15 21.2885C15 21.4951 15.049 21.682 15.1275 21.8492C15.1569 21.9082 15.1569 21.977 15.1275 22.0361Z" fill="black"/>
<path d="M16.8601 20.44C16.8601 20.4 17.3901 19.26 17.7101 18.88C17.8301 18.74 18.0501 18.73 18.1701 18.88C18.5001 19.26 19.0501 20.44 19.0501 20.44C19.0501 21.09 18.6001 21 17.9401 21C17.2801 21 16.8601 21.09 16.8601 20.44Z" fill="#452829"/>
<path d="M22.4199 20.6L20.9199 21.9L18.6899 19.73L19.6599 18.41L20.9899 17.96C20.9899 17.95 21.8299 18.93 22.4199 20.6Z" fill="#8B62BF"/>
<path d="M16.62 22.5301C16.62 22.9001 16.3201 23.2001 15.95 23.2001C15.58 23.2001 15.28 22.9001 15.28 22.5301C15.28 22.1601 15.58 21.8601 15.95 21.8601C16.3201 21.8601 16.62 22.1601 16.62 22.5301ZM20.56 22.5301C20.56 22.9001 20.26 23.2001 19.89 23.2001C19.5199 23.2001 19.22 22.9001 19.22 22.5301C19.22 22.1601 19.5199 21.8601 19.89 21.8601C20.26 21.8601 20.56 22.1601 20.56 22.5301Z" fill="#4E3233"/>
<path d="M16.3301 23.8499H17.6301C18.1401 23.8499 18.6201 24.0999 18.9101 24.5299C18.9601 24.5999 19.0701 24.5899 19.1001 24.5099L19.1301 24.4299C19.2201 24.1999 19.4001 24.0299 19.6101 23.9299C19.6201 23.9199 19.6401 23.9199 19.6501 23.9099C19.7501 23.8599 19.9701 23.7099 19.9801 23.3299L19.9301 22.0399C19.8801 20.8999 19.0001 20.1299 17.9301 20.1299C16.8601 20.1299 15.9801 20.8999 15.9301 22.0399L15.8801 23.2699C15.8701 23.8099 16.2501 23.8499 16.3301 23.8499Z" fill="#573739"/>
<path d="M17.9201 21.3601C18.1301 21.3601 18.3301 21.41 18.5001 21.5C18.5601 21.53 18.6201 21.46 18.5801 21.41C18.4401 21.19 18.2001 21.05 17.9201 21.05C17.6401 21.05 17.4001 21.19 17.2601 21.41C17.2201 21.46 17.2901 21.53 17.3401 21.5C17.5101 21.41 17.7101 21.3601 17.9201 21.3601Z" fill="#290118"/>
<path d="M18.0701 22.68L18.2801 22.01C18.3201 21.87 18.2201 21.73 18.0801 21.73H17.7701C17.6301 21.73 17.5201 21.87 17.5701 22.01L17.7801 22.68C17.8201 22.83 18.0301 22.83 18.0701 22.68Z" fill="#3D2123"/>
<path d="M16.8501 23.1C17.0701 23.1 17.2601 22.94 17.3801 22.76C17.3448 22.7499 17.3099 22.74 17.2752 22.7302C17.0346 22.6619 16.8073 22.5974 16.5801 22.51L16.3801 22.69C16.3001 22.77 16.3001 22.9 16.3901 22.96C16.5201 23.05 16.6901 23.1 16.8501 23.1ZM18.9802 23.1C18.7602 23.1 18.5702 22.94 18.4502 22.76C18.4855 22.7499 18.5204 22.74 18.5551 22.7302C18.7957 22.6619 19.023 22.5974 19.2502 22.51L19.4502 22.69C19.5302 22.77 19.5302 22.9 19.4402 22.96C19.3102 23.05 19.1402 23.1 18.9802 23.1Z" fill="black"/>
<path d="M16.3701 22.63C16.4301 22.88 16.6501 23.06 16.9201 23.06C17.2001 23.06 17.4301 22.86 17.4801 22.6C17.4901 22.54 17.4501 22.49 17.3901 22.49H16.4801C16.4101 22.49 16.3501 22.56 16.3701 22.63ZM19.4602 22.63C19.4002 22.88 19.1802 23.06 18.9102 23.06C18.6302 23.06 18.4002 22.86 18.3502 22.6C18.3402 22.54 18.3802 22.49 18.4402 22.49H19.3502C19.4202 22.49 19.4802 22.56 19.4602 22.63Z" fill="white"/>
<path d="M16.6401 22.59C16.6401 22.79 16.8001 22.95 17.0001 22.95C17.2101 22.95 17.3701 22.79 17.3601 22.59V22.59C17.3601 22.55 17.3601 22.52 17.3501 22.49H16.6501C16.6401 22.52 16.6401 22.56 16.6401 22.59ZM19.1901 22.59C19.1901 22.79 19.0301 22.95 18.8301 22.95C18.6301 22.95 18.4601 22.79 18.4701 22.59C18.4701 22.55 18.4701 22.52 18.4801 22.49H19.1801C19.1901 22.52 19.1901 22.56 19.1901 22.59Z" fill="#7D4533"/>
<path d="M17 22.8C17.12 22.8 17.21 22.7 17.21 22.59C17.21 22.55 17.2 22.52 17.18 22.49H16.81C16.8 22.52 16.79 22.56 16.79 22.59C16.79 22.71 16.89 22.8 17 22.8ZM18.8301 22.8C18.7101 22.8 18.6201 22.7 18.6201 22.59C18.6201 22.55 18.6301 22.52 18.6501 22.49H19.0201C19.0301 22.52 19.0401 22.56 19.0401 22.59C19.0401 22.71 18.9401 22.8 18.8301 22.8Z" fill="black"/>
<path d="M17.1901 22.7299C17.1901 22.7631 17.1632 22.7899 17.1301 22.7899C17.0969 22.7899 17.0701 22.7631 17.0701 22.7299C17.0701 22.6968 17.0969 22.6699 17.1301 22.6699C17.1632 22.6699 17.1901 22.6968 17.1901 22.7299ZM19.0101 22.7299C19.0101 22.7631 18.9833 22.7899 18.9501 22.7899C18.917 22.7899 18.8901 22.7631 18.8901 22.7299C18.8901 22.6968 18.917 22.6699 18.9501 22.6699C18.9833 22.6699 19.0101 22.6968 19.0101 22.7299Z" fill="white"/>
<path d="M16.5301 23.3201C16.5201 23.3101 16.5001 23.3101 16.4801 23.3101C16.4401 23.3101 16.4001 23.3301 16.3901 23.3701C16.3601 23.4201 16.3801 23.4901 16.4301 23.5201C16.4401 23.5301 16.7901 23.7201 17.2001 23.6501C17.2601 23.6401 17.3001 23.5801 17.2901 23.5201C17.2801 23.4601 17.2201 23.4201 17.1601 23.4301C16.8301 23.4901 16.5301 23.3201 16.5301 23.3201ZM19.4601 23.3701C19.4301 23.3301 19.4001 23.3101 19.3601 23.3101C19.3501 23.3101 19.3301 23.3101 19.3201 23.3201C19.3188 23.3201 19.3129 23.3229 19.3028 23.3277C19.2347 23.3601 18.9776 23.4823 18.6901 23.4301C18.6301 23.4201 18.5701 23.4601 18.5601 23.5201C18.5501 23.5801 18.5901 23.6401 18.6501 23.6501C19.0501 23.7301 19.4101 23.5301 19.4201 23.5201C19.4701 23.4901 19.4901 23.4201 19.4601 23.3701Z" fill="black"/>
</svg>

<svg xmlns="http://www.w3.org/2000/svg" width="32" height="32" fill="none"><path fill="#573739" d="m13.5 28.99.5-.39V22l.91-4 1.09.68V29c0 .49-.43 1-.92 1H13.49c-.27 0-.49-.25-.49-.52.01-.27.23-.49.5-.49Zm13.307-3.786.493.533a.413.413 0 0 1 .05.043l.61.65c.11.13.1.32-.02.43-.13.11-.32.1-.43-.02l-.02-.02a1.006 1.006 0 0 0-.004-.024l-.002-.002a.296.296 0 0 1-.104.256.299.299 0 0 1-.43-.04l-.006-.008-.104-.112-.002-.01-.008-.01c.01.1-.03.2-.11.27a.31.31 0 0 1-.42-.04l-.27-.3a.283.283 0 0 0-.22-.09l.01.09c.03.2-.12.39-.32.41a.372.372 0 0 1-.41-.33l-.086-.682-.114-.128-6.02-6.32.94-1.03 1.55.73 5.253 5.544.157.169.037.04Z"/><path fill="#8B62BF" d="M15 14h6v6h-3.983l-1.067 2h-2c0-1.574.728-3.493 1.05-4.265V14Z"/><path fill="#573739" d="m14.952 14.05-10.68-.03c-.22 0-.35-.26-.22-.44l.39-.54c.43-.59.94-.6 1.67-.68l9.89-1.36c1.91-.35 2.9-.33 3.56-.97l7.21-6.62C27.372 2.85 28.34 2 28.8 2h.7c.21 0 .322.24.192.41l-8.64 11.64h-6.1Z"/><path fill="#9B9B9B" d="M14.952 14.05h-1.95v-2.64l4.03-.67c.98-.22 2.15-.46 2.62-.89l1.7-1.47 2.32 2.14-2.62 3.53h-6.1Z"/><path fill="#533566" d="M30.86 2.89c-1.13.63-2.77 1.55-2.77 1.55l-1.69-.72-.04-1.17c-.01-.27.37-.55.64-.55 0 0 3.17-.06 3.83-.02.22.01.26.78.03.91ZM2.47 14.69c1.26-.27 3.1-.66 3.1-.66l.79-1.66-.74-.91a.483.483 0 0 0-.69-.06s-2.42 2.05-2.89 2.51c-.15.16.17.83.43.78Z"/><path fill="#000" d="M15.127 22.036a1.387 1.387 0 0 0-.127.57c0 .266.078.522.216.728.137.207.215.463.215.709 0 .727.589 1.318 1.314 1.318.069 0 .137.03.186.088.236.335.628.551 1.069.551.441 0 .833-.216 1.069-.55.039-.06.108-.09.186-.09.725 0 1.314-.59 1.314-1.317 0-.256.068-.502.215-.709.138-.206.216-.462.216-.727 0-.207-.049-.404-.128-.57a.209.209 0 0 1 0-.188A1.284 1.284 0 0 0 19.715 20h-3.43c-.716.001-1.285.581-1.285 1.29 0 .206.049.393.127.56.03.06.03.128 0 .187Z"/><path fill="#452829" d="M16.86 20.44c0-.04.53-1.18.85-1.56.12-.14.34-.15.46 0 .33.38.88 1.56.88 1.56 0 .65-.45.56-1.11.56-.66 0-1.08.09-1.08-.56Z"/><path fill="#8B62BF" d="m22.42 20.6-1.5 1.3-2.23-2.17.97-1.32 1.33-.45c0-.01.84.97 1.43 2.64Z"/><path fill="#4E3233" d="M16.62 22.53a.67.67 0 1 1-1.34 0 .67.67 0 0 1 1.34 0Zm3.94 0a.67.67 0 1 1-1.34 0 .67.67 0 0 1 1.34 0Z"/><path fill="#573739" d="M16.33 23.85h1.3c.51 0 .99.25 1.28.68.05.07.16.06.19-.02l.03-.08c.09-.23.27-.4.48-.5.01-.01.03-.01.04-.02.1-.05.32-.2.33-.58l-.05-1.29c-.05-1.14-.93-1.91-2-1.91-1.07 0-1.95.77-2 1.91l-.05 1.23c-.01.54.37.58.45.58Z"/><path fill="#290118" d="M17.92 21.36c.21 0 .41.05.58.14.06.03.12-.04.08-.09a.773.773 0 0 0-.66-.36c-.28 0-.52.14-.66.36-.04.05.03.12.08.09.17-.09.37-.14.58-.14Z"/><path fill="#3D2123" d="m18.07 22.68.21-.67c.04-.14-.06-.28-.2-.28h-.31c-.14 0-.25.14-.2.28l.21.67c.04.15.25.15.29 0Z"/><path fill="#000" d="M16.85 23.1c.22 0 .41-.16.53-.34l-.105-.03c-.24-.068-.468-.133-.695-.22l-.2.18c-.08.08-.08.21.01.27.13.09.3.14.46.14Zm2.13 0c-.22 0-.41-.16-.53-.34l.105-.03c.24-.068.468-.133.695-.22l.2.18c.08.08.08.21-.01.27a.83.83 0 0 1-.46.14Z"/><path fill="#fff" d="M16.37 22.63a.57.57 0 0 0 1.11-.03c.01-.06-.03-.11-.09-.11h-.91c-.07 0-.13.07-.11.14Zm3.09 0a.57.57 0 0 1-1.11-.03c-.01-.06.03-.11.09-.11h.91c.07 0 .13.07.11.14Z"/><path fill="#7D4533" d="M16.64 22.59c0 .2.16.36.36.36.21 0 .37-.16.36-.36 0-.04 0-.07-.01-.1h-.7c-.01.03-.01.07-.01.1Zm2.55 0c0 .2-.16.36-.36.36-.2 0-.37-.16-.36-.36 0-.04 0-.07.01-.1h.7c.01.03.01.07.01.1Z"/><path fill="#000" d="M17 22.8c.12 0 .21-.1.21-.21 0-.04-.01-.07-.03-.1h-.37c-.01.03-.02.07-.02.1 0 .12.1.21.21.21Zm1.83 0c-.12 0-.21-.1-.21-.21 0-.04.01-.07.03-.1h.37c.01.03.02.07.02.1 0 .12-.1.21-.21.21Z"/><path fill="#fff" d="M17.19 22.73a.06.06 0 1 1-.12 0 .06.06 0 0 1 .12 0Zm1.82 0a.06.06 0 1 1-.12 0 .06.06 0 0 1 .12 0Z"/><path fill="#000" d="M16.53 23.32c-.01-.01-.03-.01-.05-.01-.04 0-.08.02-.09.06-.03.05-.01.12.04.15.01.01.36.2.77.13.06-.01.1-.07.09-.13a.113.113 0 0 0-.13-.09c-.33.06-.63-.11-.63-.11Zm2.93.05c-.03-.04-.06-.06-.1-.06-.01 0-.03 0-.04.01a.118.118 0 0 0-.017.008c-.068.032-.325.154-.613.102a.113.113 0 0 0-.13.09c-.01.06.03.12.09.13.4.08.76-.12.77-.13.05-.03.07-.1.04-.15Z"/></svg>
